packages/match-icons/product/svg/functions.svg

<svg fill="none" height="32" viewBox="0 0 32 32" width="32" xmlns="http://www.w3.org/2000/svg"><path d="m29.28 2.92c-.2352-.28729-.5312-.51882-.8667-.67791-.3354-.15909-.702-.24177-1.0733-.24209h-16.34c-2.38695 0-4.67613.94821-6.36396 2.63604s-2.63604 3.97701-2.63604 6.36396v16.43c.00081.3484.07413.6928.2153 1.0113.14118.3185.34711.6041.6047.8387.45468.4209 1.05043.6563 1.67.66h.21c7.77-.68 10.83-5.92 11-9.32 1.825-.5196 3.4645-1.5477 4.7271-2.9643 1.2625-1.4166 2.0959-3.1632 2.4029-5.0357 1.7452-.5157 3.3165-1.4979 4.5447-2.84066 1.2283-1.34277 2.0668-2.99523 2.4253-4.77934.0737-.36354.0653-.73897-.0247-1.09883-.0899-.35987-.2592-.69509-.4953-.98117zm-24.75 25c-.132.003-.26038-.0433-.36-.13-.05195-.0448-.09393-.0999-.12321-.162-.02928-.062-.04522-.1294-.04679-.198v-6.43h9 .68c-.41 2.39-2.85 6.39-9.15 6.94zm8.47-8.92h-9v-6h16 .75c-.4436 1.7179-1.4456 3.2396-2.8486 4.3258-1.4029 1.0861-3.1271 1.6751-4.9014 1.6742zm7-8h-16c0-1.85652.7375-3.63699 2.05025-4.94975 1.31276-1.31275 3.09323-2.05025 4.94975-2.05025h16.34c.0754-.00117.1499.01542.2177.04843.0677.03301.1268.08151.1723.14157.0492.05492.0848.12065.1039.19187.0191.07123.0212.14595.0061.21813-.3688 1.80698-1.3507 3.43103-2.7794 4.59729-1.4286 1.16621-3.2164 1.80311-5.0606 1.80271z" fill="#394762"/></svg>

<svg width="32" height="32" viewBox="0 0 32 32" fill="none" xmlns="http://www.w3.org/2000/svg">
<path d="M29.28 2.92C29.0448 2.63271 28.7488 2.40118 28.4133 2.24209C28.0779 2.083 27.7113 2.00032 27.34 2H11C8.61305 2 6.32387 2.94821 4.63604 4.63604C2.94821 6.32387 2 8.61305 2 11V27.43C2.00081 27.7784 2.07413 28.1228 2.2153 28.4413C2.35648 28.7598 2.56241 29.0454 2.82 29.28C3.27468 29.7009 3.87043 29.9363 4.49 29.94H4.7C12.47 29.26 15.53 24.02 15.7 20.62C17.525 20.1004 19.1645 19.0723 20.4271 17.6557C21.6896 16.2391 22.523 14.4925 22.83 12.62C24.5752 12.1043 26.1465 11.1221 27.3747 9.77934C28.603 8.43657 29.4415 6.78411 29.8 5C29.8737 4.63646 29.8653 4.26103 29.7753 3.90117C29.6854 3.5413 29.5161 3.20608 29.28 2.92V2.92ZM4.53 27.92C4.398 27.923 4.26962 27.8767 4.17 27.79C4.11805 27.7452 4.07607 27.6901 4.04679 27.628C4.01751 27.566 4.00157 27.4986 4 27.43V21H13C13.23 21 13.45 21 13.68 21C13.27 23.39 10.83 27.39 4.53 27.94V27.92ZM13 19H4V13H20H20.75C20.3064 14.7179 19.3044 16.2396 17.9014 17.3258C16.4985 18.4119 14.7743 19.0009 13 19ZM20 11H4C4 9.14348 4.7375 7.36301 6.05025 6.05025C7.36301 4.7375 9.14348 4 11 4H27.34C27.4154 3.99883 27.4899 4.01542 27.5577 4.04843C27.6254 4.08144 27.6845 4.12994 27.73 4.19C27.7792 4.24492 27.8148 4.31065 27.8339 4.38187C27.853 4.4531 27.8551 4.52782 27.84 4.6C27.4712 6.40698 26.4893 8.03103 25.0606 9.19729C23.632 10.3635 21.8442 11.0004 20 11V11Z" fill="#394762"/>
</svg>
